usr/share/icons/biglinux-icons-material/scalable/mimetypes/application-vnd.oasis.opendocument.chart.svg

<svg xmlns="http://www.w3.org/2000/svg" width="24" height="24" fill="none"><rect width="22" height="22" x="1" y="1" fill="url(#a)" rx="6.6"/><path fill="#68B723" d="M6 4h3v16H6V4Z"/><path fill="#C6262E" d="M11 12h3v8h-3v-8Z"/><path fill="#3689E6" d="M16 8h3v12h-3V8Z"/><defs><radialGradient id="a" cx="0" cy="0" r="1" gradientTransform="rotate(116.565 8.441 5.908) scale(24.5967)" gradientUnits="userSpaceOnUse"><stop stop-color="#FAFAFA"/><stop offset="1" stop-color="#BBB"/></radialGradient></defs></svg>

<svg width="24" height="24" viewBox="0 0 24 24" fill="none" xmlns="http://www.w3.org/2000/svg">
<rect x="1" y="1" width="22" height="22" rx="6.6" fill="url(#paint0_radial_1_234)"/>
<path d="M6 4H9V20H6V4Z" fill="#68B723"/>
<path d="M11 12H14V20H11V12Z" fill="#C6262E"/>
<path d="M16 8H19V20H16V8Z" fill="#3689E6"/>
<defs>
<radialGradient id="paint0_radial_1_234" cx="0" cy="0" r="1" gradientUnits="userSpaceOnUse" gradientTransform="translate(17.5 1) rotate(116.565) scale(24.5967)">
<stop stop-color="#FAFAFA"/>
<stop offset="1" stop-color="#BBBBBB"/>
</radialGradient>
</defs>
</svg>
